Assets/Cards/Trash.svg

<?xml version="1.0" encoding="UTF-8"?>
<svg xmlns="http://www.w3.org/2000/svg" xmlns:xlink="http://www.w3.org/1999/xlink" width="60px" height="60px" viewBox="0 0 60 60" version="1.1">
<g id="surface1">
<path style=" stroke:none;fill-rule:nonzero;fill:rgb(0%,0%,0%);fill-opacity:1;" d="M 3.660156 1.949219 C 2.628906 2.902344 3.105469 5.28125 4.371094 5.992188 C 5.480469 6.625 6.035156 10.75 7.78125 29.613281 C 8.96875 42.21875 10.398438 53.3125 10.871094 54.265625 C 12.855469 57.910156 15.46875 58.464844 30.054688 58.464844 C 44.640625 58.464844 47.257812 57.910156 49.238281 54.265625 C 49.714844 53.3125 51.140625 42.21875 52.25 29.691406 C 54.074219 10.429688 54.625 6.707031 55.816406 5.832031 C 56.53125 5.28125 57.085938 4.167969 56.847656 3.296875 C 56.609375 1.867188 55.578125 1.789062 30.371094 1.554688 C 15.945312 1.472656 3.976562 1.632812 3.660156 1.949219 Z M 53.144531 6.5 C 52.863281 7.613281 51.734375 18.328125 50.609375 30.332031 C 49.296875 44.730469 48.167969 52.875 47.324219 54.078125 C 46.011719 55.960938 45.542969 56.046875 30.054688 56.046875 C 14.570312 56.046875 14.097656 55.960938 12.785156 54.078125 C 11.941406 52.875 10.816406 44.734375 9.5 30.332031 C 8.375 18.328125 7.25 7.613281 6.964844 6.5 L 6.589844 4.613281 L 53.519531 4.613281 Z M 53.144531 6.5 "/>
<path style=" stroke:none;fill-rule:nonzero;fill:rgb(0%,0%,0%);fill-opacity:1;" d="M 26.84375 17.8125 C 25.355469 19.691406 25.25 19.761719 23.976562 19.550781 C 22.664062 19.335938 22.628906 19.335938 21.742188 21.039062 C 21.25 22.101562 20.292969 23.199219 19.441406 23.765625 L 17.988281 24.792969 L 17.988281 27.875 C 17.988281 30.671875 18.058594 31.027344 18.769531 31.523438 C 19.40625 31.949219 19.441406 32.09375 19.015625 32.09375 C 18.414062 32.125 15.863281 36.023438 15.863281 36.945312 C 15.863281 37.226562 16.574219 37.796875 17.421875 38.183594 C 18.523438 38.75 19.160156 39.355469 19.65625 40.414062 C 20.292969 41.65625 20.683594 41.972656 22.558594 42.683594 L 24.71875 43.53125 L 26.8125 42.824219 L 28.867188 42.113281 L 30.53125 43.140625 C 31.417969 43.710938 32.335938 44.171875 32.550781 44.171875 C 32.726562 44.171875 34.179688 43.214844 35.703125 42.042969 C 38.324219 40.0625 38.609375 39.917969 40.414062 39.917969 C 42.289062 39.917969 42.363281 39.882812 43.320312 38.46875 C 44.238281 37.050781 44.273438 36.945312 43.847656 34.816406 C 43.601562 33.648438 43.140625 32.089844 42.785156 31.382812 C 42.253906 30.355469 42.183594 29.859375 42.46875 28.582031 C 42.644531 27.734375 43.140625 26.632812 43.496094 26.070312 C 44.488281 24.722656 44.382812 24.296875 42.824219 22.773438 L 41.441406 21.429688 L 39.066406 21.816406 C 36.019531 22.347656 35.3125 22.136719 35.5625 20.828125 C 35.773438 19.871094 35.59375 19.695312 32.550781 17.816406 C 30.78125 16.71875 29.113281 15.832031 28.902344 15.832031 C 28.652344 15.828125 27.730469 16.714844 26.84375 17.8125 Z M 31.273438 19.550781 C 32.335938 20.222656 33.222656 20.929688 33.222656 21.144531 C 33.222656 21.320312 32.796875 22.523438 32.300781 23.800781 C 31.273438 26.3125 31.378906 27.269531 32.585938 27.09375 C 33.113281 27.023438 33.503906 26.527344 33.894531 25.464844 C 34.425781 23.941406 34.496094 23.90625 35.734375 24.117188 C 36.445312 24.222656 37.789062 24.1875 38.746094 24.011719 C 40.164062 23.726562 40.589844 23.796875 41.121094 24.222656 C 41.652344 24.71875 41.652344 24.894531 41.226562 25.570312 C 40.976562 25.960938 40.554688 27.234375 40.304688 28.367188 C 39.914062 30.28125 39.953125 30.5625 40.765625 32.441406 C 42.820312 37.152344 42.464844 37.71875 37.4375 37.859375 C 34.140625 37.96875 33.75 38.039062 33.644531 38.640625 C 33.539062 39.03125 33.75 39.527344 34.070312 39.773438 C 34.601562 40.164062 34.566406 40.269531 33.539062 41.011719 C 32.726562 41.582031 32.265625 41.722656 31.839844 41.4375 C 28.96875 39.703125 29.253906 39.738281 26.914062 40.554688 C 24.894531 41.226562 24.648438 41.226562 23.371094 40.730469 C 22.34375 40.339844 21.8125 39.808594 21.246094 38.710938 C 20.785156 37.71875 20.148438 37.046875 19.476562 36.761719 L 18.378906 36.300781 L 19.050781 35.203125 C 19.582031 34.316406 20.359375 33.855469 22.664062 32.972656 C 24.964844 32.121094 25.636719 31.695312 25.710938 31.09375 C 25.851562 30.101562 25.070312 29.820312 23.515625 30.351562 C 22.523438 30.667969 22.097656 30.632812 21.210938 30.171875 C 20.183594 29.679688 20.113281 29.5 20.113281 27.730469 C 20.113281 25.921875 20.183594 25.78125 21.496094 24.894531 C 22.273438 24.363281 23.089844 23.445312 23.300781 22.875 C 23.796875 21.671875 23.761719 21.671875 25.886719 22.414062 C 26.808594 22.734375 27.800781 22.875 28.085938 22.769531 C 28.792969 22.519531 28.757812 21.246094 28.015625 20.855469 C 27.484375 20.539062 27.519531 20.429688 28.226562 19.40625 C 28.652344 18.804688 29.113281 18.308594 29.183594 18.308594 C 29.289062 18.308594 30.210938 18.875 31.273438 19.550781 Z M 31.273438 19.550781 "/>
<path style=" stroke:none;fill-rule:nonzero;fill:rgb(0%,0%,0%);fill-opacity:1;" d="M 30.742188 32.375 C 29.5 33.402344 28.792969 34.25 28.792969 34.746094 C 28.792969 35.949219 29.925781 35.808594 31.625 34.390625 L 33.21875 33.082031 L 34.636719 33.71875 C 37.542969 35.03125 38.214844 33.046875 35.347656 31.59375 C 34.390625 31.097656 33.398438 30.707031 33.148438 30.742188 C 32.902344 30.742188 31.804688 31.488281 30.742188 32.375 Z M 30.742188 32.375 "/>
</g>
</svg>

<svg xmlns="http://www.w3.org/2000/svg" width="60" height="60" viewBox="0 0 60 60"><path d="M3.66 1.95c-1.031.952-.555 3.331.711 4.042 1.11.633 1.664 4.758 3.41 23.621 1.188 12.606 2.617 23.7 3.09 24.653 1.984 3.644 4.598 4.199 19.184 4.199s17.203-.555 19.183-4.2c.477-.953 1.903-12.046 3.012-24.574 1.824-19.261 2.375-22.984 3.566-23.859.715-.55 1.27-1.664 1.032-2.535-.239-1.43-1.27-1.508-26.477-1.742-14.426-.082-26.394.078-26.71.394M53.145 6.5c-.282 1.113-1.41 11.828-2.536 23.832-1.312 14.398-2.441 22.543-3.285 23.746-1.312 1.883-1.781 1.969-17.27 1.969-15.484 0-15.956-.086-17.269-1.969-.844-1.203-1.969-9.344-3.285-23.746C8.375 18.328 7.25 7.613 6.965 6.5L6.59 4.613h46.93Zm0 0"/><path d="M26.844 17.813c-1.489 1.878-1.594 1.949-2.867 1.738-1.313-.215-1.348-.215-2.235 1.488-.492 1.063-1.449 2.16-2.3 2.727l-1.454 1.027v3.082c0 2.797.07 3.152.782 3.648.636.426.671.57.246.57-.602.032-3.153 3.93-3.153 4.852 0 .282.711.852 1.559 1.239 1.101.566 1.738 1.171 2.234 2.23.637 1.242 1.028 1.559 2.903 2.27l2.16.847 2.093-.707 2.055-.71 1.664 1.027c.887.57 1.805 1.03 2.02 1.03.176 0 1.629-.956 3.152-2.128 2.621-1.98 2.906-2.125 4.711-2.125 1.875 0 1.95-.035 2.906-1.45.918-1.417.953-1.523.528-3.652-.246-1.168-.707-2.726-1.063-3.433-.531-1.028-.601-1.524-.316-2.801.176-.848.672-1.95 1.027-2.512.992-1.347.887-1.773-.672-3.297l-1.383-1.343-2.375.386c-3.046.532-3.754.32-3.504-.988.211-.957.032-1.133-3.011-3.012-1.77-1.097-3.438-1.984-3.649-1.984-.25-.004-1.172.883-2.058 1.98m4.43 1.738c1.062.672 1.949 1.379 1.949 1.594 0 .175-.426 1.378-.922 2.656-1.028 2.512-.922 3.469.285 3.293.527-.07.918-.567 1.309-1.63.53-1.523.601-1.558 1.84-1.347.71.106 2.054.07 3.011-.105 1.418-.285 1.844-.215 2.375.21.531.497.531.673.106 1.348-.25.39-.672 1.664-.922 2.797-.39 1.914-.352 2.195.46 4.074 2.055 4.711 1.7 5.278-3.328 5.418-3.296.11-3.687.18-3.792.782-.106.39.105.886.425 1.132.532.391.496.497-.53 1.239-.813.57-1.274.71-1.7.425-2.871-1.734-2.586-1.699-4.926-.882-2.02.672-2.266.672-3.543.175-1.027-.39-1.558-.921-2.125-2.02-.46-.991-1.098-1.663-1.77-1.948L18.38 36.3l.672-1.098c.531-.887 1.308-1.348 3.613-2.23 2.3-.852 2.973-1.278 3.047-1.88.14-.991-.64-1.273-2.195-.741-.993.316-1.418.28-2.305-.18-1.027-.492-1.098-.672-1.098-2.442 0-1.808.07-1.949 1.383-2.835.777-.532 1.594-1.45 1.805-2.02.496-1.203.46-1.203 2.586-.46.922.32 1.914.46 2.199.355.707-.25.672-1.524-.07-1.915-.532-.316-.496-.425.21-1.449.426-.601.887-1.097.958-1.097.105 0 1.027.566 2.09 1.242m0 0"/><path d="M30.742 32.375c-1.242 1.027-1.949 1.875-1.949 2.371 0 1.203 1.133 1.063 2.832-.355l1.594-1.309 1.418.637c2.906 1.312 3.578-.672.71-2.125-.956-.496-1.949-.887-2.199-.852-.246 0-1.343.746-2.406 1.633m0 0"/></svg>
